X:1
L:1/8
M:6/8
K:Db
 A |""Db"" A2 F D2 E | F2 G A2 A | A2 D F2 D |""Ab7"" E3""Db"" D2 A | A2 F D2 E | F2 G A2 A | A2 D F2 D | 
""Ab7"" E3""Db"" D3 ||""Db"" ABc d2 A |""Gb"" c2 B""Db"" A3 | ABc d2 A |""Gb"" c2 B""Db"" A2 A | A2 F D2 E | 
 F2 G A2 A | A2 D F2 D |""Ab7"" (E3""Db"" D2) |]
